dist/svg/user-import-o.svg

<!-- Generated by Trend Micro Style Portal -->
<svg version="1.1" xmlns="http://www.w3.org/2000/svg" width="16" height="16" viewBox="0 0 16 16">
  <title>user-import-o</title>
  <path fill="rgb(34,34,34)" d="M15.866 13.816c-0.329 0.785-1.484 1.184-2.866 1.184h-6v-1h6c0.646 0 1.746-0.099 1.944-0.57 0.313-0.746-0.722-2.364-1.588-3.245-0.933-0.942-2.107-1.643-3.423-2.003l-0.054-0.013-0.38-0.094v-1.24l0.284-0.136c1.023-0.493 1.716-1.521 1.716-2.711 0-1.657-1.343-3-3-3s-3 1.343-3 3c0 1.19 0.693 2.219 1.698 2.703l0.018 0.008 0.284 0.136v1.228l-0.398 0.082c-0.498 0.112-0.937 0.271-1.347 0.477l0.033-0.015-0.78-0.729c0.365-0.211 0.789-0.399 1.233-0.544l0.048-0.013c-1.084-0.717-1.789-1.93-1.789-3.308 0-0.005 0-0.010 0-0.014v0.001c0-2.209 1.791-4 4-4s4 1.791 4 4v0c0 0.004 0 0.008 0 0.012 0 1.399-0.727 2.629-1.823 3.332l-0.016 0.009c1.336 0.463 2.477 1.192 3.408 2.129l0.001 0.001c0.877 0.892 2.379 2.943 1.797 4.333zM8 12l-4-4v3h-4v2h4v3z"></path>
</svg>

<svg width="16" height="16" viewBox="0 0 16 16" fill="rgb(34, 34, 34)" xmlns="http://www.w3.org/2000/svg"><title>user-import-o</title><path d="M15.866 13.816C15.537 14.601 14.382 15 13 15H7V14H13C13.646 14 14.746 13.901 14.944 13.43C15.257 12.684 14.222 11.066 13.356 10.185C12.423 9.243 11.249 8.542 9.933 8.182L9.879 8.169L9.499 8.075V6.835L9.783 6.699C10.806 6.206 11.499 5.178 11.499 3.988C11.499 2.331 10.156 0.988 8.499 0.988C6.842 0.988 5.499 2.331 5.499 3.988C5.499 5.178 6.192 6.207 7.197 6.691L7.215 6.699L7.499 6.835V8.063L7.101 8.145C6.603 8.257 6.164 8.416 5.754 8.622L5.787 8.607L5.007 7.878C5.372 7.667 5.796 7.479 6.24 7.334L6.288 7.321C5.204 6.604 4.499 5.391 4.499 4.013C4.499 4.008 4.499 4.003 4.499 3.999C4.499 1.79 6.29 0 8.499 0C10.708 0 12.499 1.791 12.499 4C12.499 4.004 12.499 4.008 12.499 4.012C12.499 5.411 11.772 6.641 10.676 7.344L10.66 7.353C11.996 7.816 13.137 8.545 14.068 9.482L14.069 9.483C14.946 10.375 16.448 12.426 15.866 13.816ZM8 12L4 8V11H0V13H4V16L8 12Z" fill="rgb(34, 34, 34)" fill-opacity="1.00"/></svg>
